full-site/img/acklenheart.svg

<?xml version="1.0" encoding="UTF-8"?>
<svg width="75px" height="66px" viewBox="0 0 75 66" version="1.1" xmlns="http://www.w3.org/2000/svg" xmlns:xlink="http://www.w3.org/1999/xlink">
    <!-- Generator: Sketch 48.2 (47327) - http://www.bohemiancoding.com/sketch -->
    <title>Group</title>
    <desc>Created with Sketch.</desc>
    <defs></defs>
    <g id="Desktop-HD" stroke="none" stroke-width="1" fill="none" fill-rule="evenodd" transform="translate(-682.000000, -4371.000000)">
        <g id="Group-2-Copy" transform="translate(544.000000, 4275.000000)" fill="#74BE44" fill-rule="nonzero">
            <g id="Group" transform="translate(138.000000, 96.000000)">
                <path d="M19.7560976,9.36571429 C16.9512195,9.36571429 14.0853659,9.36571429 11.2804878,9.36571429 C11.2804878,6.47428571 11.2804878,3.52 11.2804878,0.377142857 C14.0853659,0.377142857 16.9512195,0.377142857 19.7560976,0.377142857 C19.7560976,3.52 19.7560976,6.47428571 19.7560976,9.36571429 Z" id="XMLID_27_"></path>
                <path d="M11.0365854,43.3085714 C11.0365854,40.4171429 11.0365854,37.4628571 11.0365854,34.32 C13.8414634,34.32 16.7073171,34.32 19.7560976,34.32 C19.7560976,37.2114286 19.7560976,40.1657143 19.7560976,43.3085714 C16.9512195,43.3085714 14.1463415,43.3085714 11.0365854,43.3085714 Z" id="XMLID_26_"></path>
                <path d="M0.182926829,23.0685714 C2.98780488,23.0685714 5.85365854,23.0685714 8.65853659,23.0685714 C8.65853659,25.96 8.65853659,28.9142857 8.65853659,32.0571429 C5.85365854,32.0571429 2.98780488,32.0571429 0.182926829,32.0571429 C0.182926829,29.1657143 0.182926829,26.2742857 0.182926829,23.0685714 Z" id="XMLID_25_"></path>
                <path d="M11.0365854,32.12 C11.0365854,29.2285714 11.0365854,26.2742857 11.0365854,23.1314286 C13.8414634,23.1314286 16.7073171,23.1314286 19.5121951,23.1314286 C19.5121951,26.0228571 19.5121951,28.9771429 19.5121951,32.12 C16.9512195,32.12 14.1463415,32.12 11.0365854,32.12 Z" id="XMLID_24_"></path>
                <path d="M0.182926829,20.68 C0.182926829,17.7885714 0.182926829,14.8342857 0.182926829,11.6914286 C2.98780488,11.6914286 5.85365854,11.6914286 8.65853659,11.6914286 C8.65853659,14.5828571 8.65853659,17.5371429 8.65853659,20.68 C6.09756098,20.68 3.23170732,20.68 0.182926829,20.68 Z" id="XMLID_23_"></path>
                <path d="M19.7560976,11.8171429 C19.7560976,14.7085714 19.7560976,17.6628571 19.7560976,20.8057143 C16.9512195,20.8057143 14.0853659,20.8057143 11.0365854,20.8057143 C11.0365854,17.9142857 11.0365854,14.96 11.0365854,11.8171429 C14.1463415,11.8171429 16.7073171,11.8171429 19.7560976,11.8171429 Z" id="XMLID_22_"></path>
                <path d="M33.2926829,45.6971429 C36.097561,45.6971429 38.9634146,45.6971429 41.7682927,45.6971429 C41.7682927,48.5885714 41.7682927,51.5428571 41.7682927,54.6857143 C38.9634146,54.6857143 36.3414634,54.6857143 33.2926829,54.6857143 C33.2926829,51.5428571 33.2926829,48.6514286 33.2926829,45.6971429 Z" id="XMLID_21_"></path>
                <path d="M22.195122,9.36571429 C22.195122,6.47428571 22.195122,3.52 22.195122,0.628571429 C25,0.628571429 27.8658537,0.628571429 30.9146341,0.628571429 C30.9146341,3.52 30.9146341,6.47428571 30.9146341,9.36571429 C27.8658537,9.36571429 25.304878,9.36571429 22.195122,9.36571429 Z" id="XMLID_20_"></path>
                <path d="M52.6829268,9.36571429 C49.8780488,9.36571429 47.0121951,9.36571429 44.2073171,9.36571429 C44.2073171,6.47428571 44.2073171,3.52 44.2073171,0.377142857 C47.0121951,0.377142857 49.8780488,0.377142857 52.6829268,0.377142857 C52.6829268,3.52 52.6829268,6.47428571 52.6829268,9.36571429 Z" id="XMLID_19_"></path>
                <path d="M55.0609756,9.36571429 C55.0609756,6.47428571 55.0609756,3.52 55.0609756,0.628571429 C57.8658537,0.628571429 60.7317073,0.628571429 63.5365854,0.628571429 C63.5365854,3.52 63.5365854,6.47428571 63.5365854,9.36571429 C60.7317073,9.36571429 57.9268293,9.36571429 55.0609756,9.36571429 Z" id="XMLID_18_"></path>
                <path d="M30.7317073,20.8685714 C27.9268293,20.8685714 25.0609756,20.8685714 22.2560976,20.8685714 C22.2560976,17.9771429 22.2560976,15.0228571 22.2560976,11.88 C25.0609756,11.88 27.9268293,11.88 30.7317073,11.88 C30.7317073,14.7714286 30.7317073,17.7257143 30.7317073,20.8685714 Z" id="XMLID_17_"></path>
                <path d="M41.5853659,32.12 C38.7804878,32.12 35.9146341,32.12 33.1097561,32.12 C33.1097561,29.2285714 33.1097561,26.2742857 33.1097561,23.1314286 C35.9146341,23.1314286 38.7804878,23.1314286 41.5853659,23.1314286 C41.5853659,26.0228571 41.5853659,28.9142857 41.5853659,32.12 Z" id="XMLID_16_"></path>
                <path d="M52.6829268,32.12 C49.6341463,32.12 47.0121951,32.12 44.2073171,32.12 C44.2073171,29.2285714 44.2073171,26.2742857 44.2073171,23.1314286 C47.0121951,23.1314286 49.8780488,23.1314286 52.6829268,23.1314286 C52.6829268,26.2742857 52.6829268,28.9142857 52.6829268,32.12 Z" id="XMLID_15_"></path>
                <path d="M55.0609756,32.12 C55.0609756,28.9771429 55.0609756,26.2742857 55.0609756,23.1314286 C57.8658537,23.1314286 60.7317073,23.1314286 63.5365854,23.1314286 C63.5365854,26.0228571 63.5365854,28.9771429 63.5365854,32.12 C60.7317073,32.12 57.9268293,32.12 55.0609756,32.12 Z" id="XMLID_14_"></path>
                <path d="M74.695122,32.12 C71.8902439,32.12 69.0243902,32.12 66.2195122,32.12 C66.2195122,29.2285714 66.2195122,26.2742857 66.2195122,23.1314286 C69.0243902,23.1314286 71.8902439,23.1314286 74.695122,23.1314286 C74.695122,26.0228571 74.695122,28.9142857 74.695122,32.12 Z" id="XMLID_13_"></path>
                <path d="M66.2195122,11.8171429 C69.0243902,11.8171429 71.8902439,11.8171429 74.695122,11.8171429 C74.695122,14.7085714 74.695122,17.6628571 74.695122,20.8057143 C71.8902439,20.8057143 69.0243902,20.8057143 66.2195122,20.8057143 C66.2195122,17.7257143 66.2195122,14.7714286 66.2195122,11.8171429 Z" id="XMLID_12_"></path>
                <path d="M55.0609756,11.8171429 C57.8658537,11.8171429 60.7317073,11.8171429 63.5365854,11.8171429 C63.5365854,14.7085714 63.5365854,17.6628571 63.5365854,20.8057143 C60.7317073,20.8057143 57.8658537,20.8057143 55.0609756,20.8057143 C55.0609756,17.7257143 55.0609756,14.7714286 55.0609756,11.8171429 Z" id="XMLID_11_"></path>
                <path d="M22.195122,23.0685714 C25,23.0685714 27.8658537,23.0685714 30.6707317,23.0685714 C30.6707317,25.96 30.6707317,28.9142857 30.6707317,32.0571429 C27.8658537,32.0571429 25,32.0571429 22.195122,32.0571429 C22.195122,29.1657143 22.195122,26.2742857 22.195122,23.0685714 Z" id="XMLID_10_"></path>
                <path d="M30.7317073,43.3085714 C27.9268293,43.3085714 25.0609756,43.3085714 22.2560976,43.3085714 C22.2560976,40.4171429 22.2560976,37.4628571 22.2560976,34.32 C25.0609756,34.32 27.9268293,34.32 30.7317073,34.32 C30.7317073,37.2114286 30.7317073,40.3542857 30.7317073,43.3085714 Z" id="XMLID_9_"></path>
                <path d="M41.5853659,43.3085714 C38.7804878,43.3085714 35.9146341,43.3085714 33.1097561,43.3085714 C33.1097561,40.4171429 33.1097561,37.4628571 33.1097561,34.32 C35.9146341,34.32 38.7804878,34.32 41.5853659,34.32 C41.5853659,37.4628571 41.5853659,40.3542857 41.5853659,43.3085714 Z" id="XMLID_8_"></path>
                <path d="M44.1463415,43.3085714 C44.1463415,40.4171429 44.1463415,37.4628571 44.1463415,34.32 C46.9512195,34.32 49.8170732,34.32 52.6219512,34.32 C52.6219512,37.2114286 52.6219512,40.1657143 52.6219512,43.3085714 C49.8170732,43.3085714 47.0121951,43.3085714 44.1463415,43.3085714 Z" id="XMLID_7_"></path>
                <path d="M55.0609756,43.3085714 C55.0609756,40.1657143 55.0609756,37.4628571 55.0609756,34.32 C57.8658537,34.32 60.7317073,34.32 63.5365854,34.32 C63.5365854,37.2114286 63.5365854,40.1657143 63.5365854,43.3085714 C60.7317073,43.3085714 57.9268293,43.3085714 55.0609756,43.3085714 Z" id="XMLID_6_"></path>
                <path d="M52.6829268,11.8171429 C52.6829268,14.96 52.6829268,17.6628571 52.6829268,20.8057143 C49.8780488,20.8057143 47.0121951,20.8057143 44.2073171,20.8057143 C44.2073171,17.9142857 44.2073171,14.96 44.2073171,11.8171429 C47.0121951,11.8171429 49.5731707,11.8171429 52.6829268,11.8171429 Z" id="XMLID_5_"></path>
                <path d="M33.0487805,20.68 C33.0487805,17.7885714 33.0487805,14.8342857 33.0487805,11.6914286 C35.8536585,11.6914286 38.7195122,11.6914286 41.5243902,11.6914286 C41.5243902,14.5828571 41.5243902,17.5371429 41.5243902,20.68 C38.9634146,20.68 36.1585366,20.68 33.0487805,20.68 Z" id="XMLID_4_"></path>
                <path d="M30.9146341,45.6971429 C30.9146341,48.5885714 30.9146341,51.5428571 30.9146341,54.6857143 C28.1097561,54.6857143 25.2439024,54.6857143 22.4390244,54.6857143 C22.4390244,51.7942857 22.4390244,48.84 22.4390244,45.6971429 C25.0609756,45.6971429 27.8658537,45.6971429 30.9146341,45.6971429 Z" id="XMLID_3_"></path>
                <path d="M52.6829268,54.8114286 C49.8780488,54.8114286 47.0121951,54.8114286 44.2073171,54.8114286 C44.2073171,51.92 44.2073171,48.9657143 44.2073171,45.8228571 C47.0121951,45.8228571 49.8780488,45.8228571 52.6829268,45.8228571 C52.6829268,48.6514286 52.6829268,51.5428571 52.6829268,54.8114286 Z" id="XMLID_2_"></path>
                <path d="M33.0487805,66 C33.0487805,63.1085714 33.0487805,60.1542857 33.0487805,57.0114286 C35.8536585,57.0114286 38.7195122,57.0114286 41.5243902,57.0114286 C41.5243902,59.9028571 41.5243902,62.8571429 41.5243902,66 C38.9634146,66 36.1585366,66 33.0487805,66 Z" id="XMLID_1_"></path>
            </g>
        </g>
    </g>
</svg>

<?xml version="1.0" encoding="utf-8"?>
<!-- Generator: Adobe Illustrator 21.0.2, SVG Export Plug-In . SVG Version: 6.00 Build 0)  -->
<svg version="1.1" id="Capa_1" xmlns="http://www.w3.org/2000/svg" xmlns:xlink="http://www.w3.org/1999/xlink" x="0px" y="0px"
	 viewBox="0 0 75 66" style="enable-background:new 0 0 75 66;" xml:space="preserve">
<style type="text/css">
	.st0{fill:#FFFFFF;}
</style>
<title>Group</title>
<desc>Created with Sketch.</desc>
<g id="Desktop-HD" transform="translate(-682.000000, -4371.000000)">
	<g id="Group-2-Copy" transform="translate(544.000000, 4275.000000)">
		<g id="Group" transform="translate(138.000000, 96.000000)">
			<path id="XMLID_27_" class="st0" d="M19.8,9.4c-2.8,0-5.7,0-8.5,0c0-2.9,0-5.8,0-9c2.8,0,5.7,0,8.5,0C19.8,3.5,19.8,6.5,19.8,9.4
				z"/>
			<path id="XMLID_26_" class="st0" d="M11,43.3c0-2.9,0-5.8,0-9c2.8,0,5.7,0,8.7,0c0,2.9,0,5.8,0,9C17,43.3,14.1,43.3,11,43.3z"/>
			<path id="XMLID_25_" class="st0" d="M0.2,23.1c2.8,0,5.7,0,8.5,0c0,2.9,0,5.8,0,9c-2.8,0-5.7,0-8.5,0C0.2,29.2,0.2,26.3,0.2,23.1
				z"/>
			<path id="XMLID_24_" class="st0" d="M11,32.1c0-2.9,0-5.8,0-9c2.8,0,5.7,0,8.5,0c0,2.9,0,5.8,0,9C17,32.1,14.1,32.1,11,32.1z"/>
			<path id="XMLID_23_" class="st0" d="M0.2,20.7c0-2.9,0-5.8,0-9c2.8,0,5.7,0,8.5,0c0,2.9,0,5.8,0,9C6.1,20.7,3.2,20.7,0.2,20.7z"
				/>
			<path id="XMLID_22_" class="st0" d="M19.8,11.8c0,2.9,0,5.8,0,9c-2.8,0-5.7,0-8.7,0c0-2.9,0-5.8,0-9
				C14.1,11.8,16.7,11.8,19.8,11.8z"/>
			<path id="XMLID_21_" class="st0" d="M33.3,45.7c2.8,0,5.7,0,8.5,0c0,2.9,0,5.8,0,9c-2.8,0-5.4,0-8.5,0
				C33.3,51.5,33.3,48.7,33.3,45.7z"/>
			<path id="XMLID_20_" class="st0" d="M22.2,9.4c0-2.9,0-5.8,0-8.7c2.8,0,5.7,0,8.7,0c0,2.9,0,5.8,0,8.7
				C27.9,9.4,25.3,9.4,22.2,9.4z"/>
			<path id="XMLID_19_" class="st0" d="M52.7,9.4c-2.8,0-5.7,0-8.5,0c0-2.9,0-5.8,0-9c2.8,0,5.7,0,8.5,0C52.7,3.5,52.7,6.5,52.7,9.4
				z"/>
			<path id="XMLID_18_" class="st0" d="M55.1,9.4c0-2.9,0-5.8,0-8.7c2.8,0,5.7,0,8.5,0c0,2.9,0,5.8,0,8.7
				C60.7,9.4,57.9,9.4,55.1,9.4z"/>
			<path id="XMLID_17_" class="st0" d="M30.7,20.9c-2.8,0-5.7,0-8.5,0c0-2.9,0-5.8,0-9c2.8,0,5.7,0,8.5,0
				C30.7,14.8,30.7,17.7,30.7,20.9z"/>
			<path id="XMLID_16_" class="st0" d="M41.6,32.1c-2.8,0-5.7,0-8.5,0c0-2.9,0-5.8,0-9c2.8,0,5.7,0,8.5,0
				C41.6,26,41.6,28.9,41.6,32.1z"/>
			<path id="XMLID_15_" class="st0" d="M52.7,32.1c-3,0-5.7,0-8.5,0c0-2.9,0-5.8,0-9c2.8,0,5.7,0,8.5,0
				C52.7,26.3,52.7,28.9,52.7,32.1z"/>
			<path id="XMLID_14_" class="st0" d="M55.1,32.1c0-3.1,0-5.8,0-9c2.8,0,5.7,0,8.5,0c0,2.9,0,5.8,0,9
				C60.7,32.1,57.9,32.1,55.1,32.1z"/>
			<path id="XMLID_13_" class="st0" d="M74.7,32.1c-2.8,0-5.7,0-8.5,0c0-2.9,0-5.8,0-9c2.8,0,5.7,0,8.5,0
				C74.7,26,74.7,28.9,74.7,32.1z"/>
			<path id="XMLID_12_" class="st0" d="M66.2,11.8c2.8,0,5.7,0,8.5,0c0,2.9,0,5.8,0,9c-2.8,0-5.7,0-8.5,0
				C66.2,17.7,66.2,14.8,66.2,11.8z"/>
			<path id="XMLID_11_" class="st0" d="M55.1,11.8c2.8,0,5.7,0,8.5,0c0,2.9,0,5.8,0,9c-2.8,0-5.7,0-8.5,0
				C55.1,17.7,55.1,14.8,55.1,11.8z"/>
			<path id="XMLID_10_" class="st0" d="M22.2,23.1c2.8,0,5.7,0,8.5,0c0,2.9,0,5.8,0,9c-2.8,0-5.7,0-8.5,0
				C22.2,29.2,22.2,26.3,22.2,23.1z"/>
			<path id="XMLID_9_" class="st0" d="M30.7,43.3c-2.8,0-5.7,0-8.5,0c0-2.9,0-5.8,0-9c2.8,0,5.7,0,8.5,0
				C30.7,37.2,30.7,40.4,30.7,43.3z"/>
			<path id="XMLID_8_" class="st0" d="M41.6,43.3c-2.8,0-5.7,0-8.5,0c0-2.9,0-5.8,0-9c2.8,0,5.7,0,8.5,0
				C41.6,37.5,41.6,40.4,41.6,43.3z"/>
			<path id="XMLID_7_" class="st0" d="M44.1,43.3c0-2.9,0-5.8,0-9c2.8,0,5.7,0,8.5,0c0,2.9,0,5.8,0,9C49.8,43.3,47,43.3,44.1,43.3z"
				/>
			<path id="XMLID_6_" class="st0" d="M55.1,43.3c0-3.1,0-5.8,0-9c2.8,0,5.7,0,8.5,0c0,2.9,0,5.8,0,9C60.7,43.3,57.9,43.3,55.1,43.3
				z"/>
			<path id="XMLID_5_" class="st0" d="M52.7,11.8c0,3.1,0,5.8,0,9c-2.8,0-5.7,0-8.5,0c0-2.9,0-5.8,0-9C47,11.8,49.6,11.8,52.7,11.8z
				"/>
			<path id="XMLID_4_" class="st0" d="M33,20.7c0-2.9,0-5.8,0-9c2.8,0,5.7,0,8.5,0c0,2.9,0,5.8,0,9C39,20.7,36.2,20.7,33,20.7z"/>
			<path id="XMLID_3_" class="st0" d="M30.9,45.7c0,2.9,0,5.8,0,9c-2.8,0-5.7,0-8.5,0c0-2.9,0-5.8,0-9
				C25.1,45.7,27.9,45.7,30.9,45.7z"/>
			<path id="XMLID_2_" class="st0" d="M52.7,54.8c-2.8,0-5.7,0-8.5,0c0-2.9,0-5.8,0-9c2.8,0,5.7,0,8.5,0
				C52.7,48.7,52.7,51.5,52.7,54.8z"/>
			<path id="XMLID_1_" class="st0" d="M33,66c0-2.9,0-5.8,0-9c2.8,0,5.7,0,8.5,0c0,2.9,0,5.8,0,9C39,66,36.2,66,33,66z"/>
		</g>
	</g>
</g>
</svg>
